icons/svg/grid-off.svg

﻿<?xml version="1.0" encoding="utf-8"?>
<!DOCTYPE svg PUBLIC "-//W3C//DTD SVG 1.1//EN" "http://www.w3.org/Graphics/SVG/1.1/DTD/svg11.dtd">
<svg xmlns="http://www.w3.org/2000/svg" xmlns:xlink="http://www.w3.org/1999/xlink" version="1.1" baseProfile="full" width="24" height="24" viewBox="0 0 24.00 24.00" enable-background="new 0 0 24.00 24.00" xml:space="preserve">
	<path fill="#000000" fill-opacity="1" stroke-width="0.2" stroke-linejoin="round" d="M -2.00669e-006,2.7685L 1.27711,1.50004L 22.5,22.7229L 21.2315,24L 19.2315,22L 4.02344,22C 2.91887,22 2.02344,21.1046 2.02344,20L 2.00113,4.76962L -2.00669e-006,2.7685 Z M 10,4L 10,7.67731L 8,5.67731L 8,4L 6.32269,4L 4.3227,2.00001L 20,2C 21.1046,2 22,2.89542 22,3.99999L 22.023,19.7003L 20.0201,17.6974L 20.0176,16L 18.3227,16L 16.3227,14L 20.0146,14L 20.0088,10L 16,10L 16,13.6773L 14,11.6773L 14,10L 12.3227,10L 10.3227,8L 14,8L 14,3.99999L 10,4 Z M 16,3.99999L 16,8L 20.0059,8L 20,3.99999L 16,3.99999 Z M 16,20L 17.2315,20L 16,18.7685L 16,20 Z M 4.00586,8.00001L 5.23151,8.00001L 4.00406,6.77256L 4.00586,8.00001 Z M 10,14L 11.2315,14L 10,12.7685L 10,14 Z M 14,20L 14,16.7685L 13.2315,16L 10,16L 10,20L 14,20 Z M 8.00001,20L 8,16L 4.01758,16L 4.02344,20L 8.00001,20 Z M 8,14L 8,10.7685L 7.23151,10L 4.00879,10L 4.01465,14L 8,14 Z "/>
</svg>

<svg xmlns="http://www.w3.org/2000/svg" version="1.1" baseProfile="full" width="24" height="24" viewBox="0 0 24.00 24.00" xml:space="preserve"><path fill="#000" fill-opacity="1" stroke-width=".2" stroke-linejoin="round" d="M0 2.768L1.277 1.5 22.5 22.723 21.232 24l-2-2H4.021c-1.103 0-2-.895-2-2l-.02-15.23L0 2.77zM10 4v3.677l-2-2V4H6.323l-2-2H20c1.105 0 2 .895 2 2l.023 15.7-2.003-2.003L20.018 16h-1.695l-2-2h3.692l-.006-4H16v3.677l-2-2V10h-1.677l-2-2H14V4h-4zm6 0v4h4.006L20 4h-4zm0 16h1.232L16 18.768V20zM4.006 8h1.226L4.004 6.773 4.006 8zM10 14h1.232L10 12.768V14zm4 6v-3.232L13.232 16H10v4h4zm-6 0v-4H4.018l.005 4H8zm0-6v-3.232L7.232 10H4.01l.005 4H8z"/></svg>
